Origami/24x24/apps/vectr.svg

<svg width="24" height="24" version="1.1" viewBox="0 0 24 24" xmlns="http://www.w3.org/2000/svg">
 <path d="m2.0098 12.207a10 10 0 0 0 -0.0098 0.293 10 10 0 0 0 10 10 10 10 0 0 0 10 -10 10 10 0 0 0 -0.0098 -0.20703 10 10 0 0 1 -9.99 9.707 10 10 0 0 1 -9.9902 -9.793z" opacity=".2"/>
 <path d="m12 2a10 10 0 0 0 -10 10 10 10 0 0 0 10 10 10 10 0 0 0 10 -10 10 10 0 0 0 -10 -10z" style="fill:#4f4f4f"/>
 <path d="m8.7128906 7.4959404c-0.1637129-2.502e-4 -0.3469592 0.00391-0.5585937 0.00391-0.8997727-0.017924-1.8012959 0.010918-2.7011719 0-0.6238339-0.0047-0.4793855 0.7248572-0.2988281 1.03125 1.9963266 3.3875916 4.3557816 7.1799766 6.5546871 10.755859 0.422499 0.593634 0.866767-0.211819 1.103516-0.55664 0.598348-0.871468 1.091967-1.783974 1.597656-2.697266 0.213587-0.613827-0.383139-1.086951-0.595703-1.607426-1.297058-2.193782-2.661802-4.34703-3.986328-6.5214835-0.3169729-0.3620837-0.6240955-0.4074526-1.1152344-0.4082031zm6.6464844 0.00391c-0.639303 0-0.232422 0.7207031-0.232422 0.7207031s0.959592 1.8161735 1.511719 2.8105465c0.552127 0.994375 0.850003 0.138594 0.988281-0.136719 0.497512-0.9905629 0.930584-2.023213 1.279297-2.7089875 0.348712-0.6857754-0.378906-0.6855469-0.378906-0.6855469z" style="opacity:.2"/>
 <path d="m12 2a10 10 0 0 0 -10 10 10 10 0 0 0 0.0098 0.207 10 10 0 0 1 9.9902 -9.707 10 10 0 0 1 9.99 9.793 10 10 0 0 0 0.01 -0.293 10 10 0 0 0 -10 -10z" fill="#ffffff" style="opacity:.1"/>
 <path d="m8.7128906 6.9960938c-0.1637129-2.502e-4 -0.3469592 0.0039062-0.5585937 0.0039062-0.8997727-0.0179242-1.8012959 0.0109182-2.7011719 0-0.6238339-0.0047-0.4793855 0.7248572-0.2988281 1.03125 1.9963266 3.387592 4.3557816 7.179977 6.5546871 10.755859 0.422499 0.593634 0.866767-0.211819 1.103516-0.55664 0.598348-0.871468 1.091967-1.783974 1.597656-2.697266 0.213587-0.613823-0.383139-1.086947-0.595703-1.607422-1.297058-2.193782-2.661802-4.3470308-3.986328-6.5214841-0.3169729-0.3620837-0.6240955-0.4074526-1.1152344-0.4082031zm6.6464844 0.0039062c-0.639303 0-0.232422 0.7207031-0.232422 0.7207031s0.959592 1.8161734 1.511719 2.8105469c0.552127 0.994375 0.850003 0.138594 0.988281-0.136719 0.497512-0.9905595 0.930584-2.0232096 1.279297-2.7089841 0.348712-0.6857754-0.378906-0.6855469-0.378906-0.6855469h-3.167969z" style="fill:#cccccc"/>
 <path d="m8.7128906 6.9960938c-0.1637129-2.502e-4 -0.3469592 0.0039062-0.5585937 0.0039062-0.8997727-0.0179242-1.8012959 0.0109182-2.7011719 0-0.4687761-0.0035318-0.5042151 0.4076092-0.4160156 0.7421875 0.0567679-0.1428803 0.1829304-0.2439436 0.4160156-0.2421875 0.899876 0.010918 1.8013992-0.017924 2.7011719 0 0.2116345 0 0.3948808-0.0041564 0.5585937-0.0039062 0.4911389 7.504e-4 0.7982615 0.0461194 1.1152344 0.4082031 1.324526 2.1744531 2.68927 4.3277021 3.986328 6.5214841 0.150875 0.369427 0.48488 0.716507 0.595703 1.105469 0.211673-0.612888-0.383361-1.085538-0.595703-1.605469-1.297058-2.193782-2.661802-4.3470308-3.986328-6.5214841-0.3169729-0.3620837-0.6240955-0.4074526-1.1152344-0.4082031zm6.6464844 0.0039062c-0.474488 0-0.371138 0.3949113-0.287109 0.5996094 0.054151-0.058147 0.140903-0.0996094 0.287109-0.0996094h3.167969s0.258011 0.0035697 0.392578 0.1503906c0.301399-0.6464032-0.392578-0.6503906-0.392578-0.6503906h-3.167969z" style="fill:#ffffff;opacity:.2"/>
</svg>

<svg xmlns="http://www.w3.org/2000/svg" width="24" height="24" version="1.1" viewBox="0 0 24 24">
 <path opacity=".2" d="m2.0098 12.207a10 10 0 0 0 -0.0098 0.293 10 10 0 0 0 10 10 10 10 0 0 0 10 -10 10 10 0 0 0 -0.0098 -0.20703 10 10 0 0 1 -9.99 9.707 10 10 0 0 1 -9.9902 -9.793z"/>
 <path style="fill:#4f4f4f" d="m12 2a10 10 0 0 0 -10 10 10 10 0 0 0 10 10 10 10 0 0 0 10 -10 10 10 0 0 0 -10 -10z"/>
 <path style="opacity:0.2" d="m 8.7128906,7.4959404 c -0.1637129,-2.502e-4 -0.3469592,0.00391 -0.5585937,0.00391 -0.8997727,-0.017924 -1.8012959,0.010918 -2.7011719,0 -0.6238339,-0.0047 -0.4793855,0.7248572 -0.2988281,1.03125 1.9963266,3.3875916 4.3557816,7.1799766 6.5546871,10.7558586 0.422499,0.593634 0.866767,-0.211819 1.103516,-0.55664 0.598348,-0.871468 1.091967,-1.783974 1.597656,-2.697266 0.213587,-0.613827 -0.383139,-1.086951 -0.595703,-1.607426 C 12.517395,12.231845 11.152651,10.078597 9.828125,7.9041435 9.5111521,7.5420598 9.2040295,7.4966909 8.7128906,7.4959404 Z m 6.6464844,0.00391 c -0.639303,0 -0.232422,0.7207031 -0.232422,0.7207031 0,0 0.959592,1.8161735 1.511719,2.8105465 0.552127,0.994375 0.850003,0.138594 0.988281,-0.136719 C 18.124465,9.9038181 18.557537,8.871168 18.90625,8.1853935 19.254962,7.4996181 18.527344,7.4998466 18.527344,7.4998466 Z"/>
 <path fill="#ffffff" style="opacity:0.1" d="m12 2a10 10 0 0 0 -10 10 10 10 0 0 0 0.0098 0.207 10 10 0 0 1 9.9902 -9.707 10 10 0 0 1 9.99 9.793 10 10 0 0 0 0.01 -0.293 10 10 0 0 0 -10 -10z"/>
 <path style="fill:#cccccc" d="M 8.7128906 6.9960938 C 8.5491777 6.9958436 8.3659314 7 8.1542969 7 C 7.2545242 6.9820758 6.353001 7.0109182 5.453125 7 C 4.8292911 6.9953 4.9737395 7.7248572 5.1542969 8.03125 C 7.1506235 11.418842 9.5100785 15.211227 11.708984 18.787109 C 12.131483 19.380743 12.575751 18.57529 12.8125 18.230469 C 13.410848 17.359001 13.904467 16.446495 14.410156 15.533203 C 14.623743 14.91938 14.027017 14.446256 13.814453 13.925781 C 12.517395 11.731999 11.152651 9.5787502 9.828125 7.4042969 C 9.5111521 7.0422132 9.2040295 6.9968443 8.7128906 6.9960938 z M 15.359375 7 C 14.720072 7 15.126953 7.7207031 15.126953 7.7207031 C 15.126953 7.7207031 16.086545 9.5368765 16.638672 10.53125 C 17.190799 11.525625 17.488675 10.669844 17.626953 10.394531 C 18.124465 9.4039715 18.557537 8.3713214 18.90625 7.6855469 C 19.254962 6.9997715 18.527344 7 18.527344 7 L 15.359375 7 z"/>
 <path style="fill:#ffffff;opacity:0.2" d="M 8.7128906 6.9960938 C 8.5491777 6.9958436 8.3659314 7 8.1542969 7 C 7.2545242 6.9820758 6.353001 7.0109182 5.453125 7 C 4.9843489 6.9964682 4.9489099 7.4076092 5.0371094 7.7421875 C 5.0938773 7.5993072 5.2200398 7.4982439 5.453125 7.5 C 6.353001 7.510918 7.2545242 7.482076 8.1542969 7.5 C 8.3659314 7.5 8.5491777 7.4958436 8.7128906 7.4960938 C 9.2040295 7.4968442 9.5111521 7.5422132 9.828125 7.9042969 C 11.152651 10.07875 12.517395 12.231999 13.814453 14.425781 C 13.965328 14.795208 14.299333 15.142288 14.410156 15.53125 C 14.621829 14.918362 14.026795 14.445712 13.814453 13.925781 C 12.517395 11.731999 11.152651 9.5787502 9.828125 7.4042969 C 9.5111521 7.0422132 9.2040295 6.9968443 8.7128906 6.9960938 z M 15.359375 7 C 14.884887 7 14.988237 7.3949113 15.072266 7.5996094 C 15.126417 7.5414624 15.213169 7.5 15.359375 7.5 L 18.527344 7.5 C 18.527344 7.5 18.785355 7.5035697 18.919922 7.6503906 C 19.221321 7.0039874 18.527344 7 18.527344 7 L 15.359375 7 z"/>
</svg>
